movej([-0.22,-0.420,0.48,0.020431705270,-2.208553989612, 2.218266398921],a=1,v=1.05,t=0,r=0)
movej([-0.21682667408728304,-0.420,0.48634239196565643,0.020431705270,-2.208553989612, 2.218266398921],a=1,v=1.05,t=0,r=0)
movej([-0.21365334817456608,-0.420,0.49265924535737493,0.020431705270,-2.208553989612, 2.218266398921],a=1,v=1.05,t=0,r=0)
movej([-0.21048002226184911,-0.420,0.498925124436041,0.020431705270,-2.208553989612, 2.218266398921],a=1,v=1.05,t=0,r=0)
movej([-0.20730669634913215,-0.420,0.5051147987181079,0.020431705270,-2.208553989612, 2.218266398921],a=1,v=1.05,t=0,r=0)
movej([-0.2041333704364152,-0.420,0.5112033445698487,0.020431705270,-2.208553989612, 2.218266398921],a=1,v=1.05,t=0,r=0)
movej([-0.20096004452369823,-0.420,0.5171662455660327,0.020431705270,-2.208553989612, 2.218266398921],a=1,v=1.05,t=0,r=0)
movej([-0.19778671861098127,-0.420,0.5229794912089172,0.020431705270,-2.208553989612, 2.218266398921],a=1,v=1.05,t=0,r=0)
movej([-0.1946133926982643,-0.420,0.5286196736100468,0.020431705270,-2.208553989612, 2.218266398921],a=1,v=1.05,t=0,r=0)
movej([-0.19144006678554734,-0.420,0.5340640817455597,0.020431705270,-2.208553989612, 2.218266398921],a=1,v=1.05,t=0,r=0)
movej([-0.18826674087283038,-0.420,0.539290792905464,0.020431705270,-2.208553989612, 2.218266398921],a=1,v=1.05,t=0,r=0)
movej([-0.18509341496011342,-0.420,0.5442787609686539,0.020431705270,-2.208553989612, 2.218266398921],a=1,v=1.05,t=0,r=0)
movej([-0.18192008904739643,-0.420,0.5490079011482112,0.020431705270,-2.208553989612, 2.218266398921],a=1,v=1.05,t=0,r=0)
movej([-0.17874676313467946,-0.420,0.5534591708657534,0.020431705270,-2.208553989612, 2.218266398921],a=1,v=1.05,t=0,r=0)
movej([-0.1755734372219625,-0.420,0.5576146464291757,0.020431705270,-2.208553989612, 2.218266398921],a=1,v=1.05,t=0,r=0)
movej([-0.17240011130924554,-0.420,0.5614575952050336,0.020431705270,-2.208553989612, 2.218266398921],a=1,v=1.05,t=0,r=0)
movej([-0.16922678539652858,-0.420,0.5649725429949515,0.020431705270,-2.208553989612, 2.218266398921],a=1,v=1.05,t=0,r=0)
movej([-0.16605345948381162,-0.420,0.5681453363447582,0.020431705270,-2.208553989612, 2.218266398921],a=1,v=1.05,t=0,r=0)
movej([-0.16288013357109465,-0.420,0.5709631995354518,0.020431705270,-2.208553989612, 2.218266398921],a=1,v=1.05,t=0,r=0)
movej([-0.1597068076583777,-0.420,0.5734147860265106,0.020431705270,-2.208553989612, 2.218266398921],a=1,v=1.05,t=0,r=0)
movej([-0.15653348174566073,-0.420,0.5754902241444073,0.020431705270,-2.208553989612, 2.218266398921],a=1,v=1.05,t=0,r=0)
movej([-0.15336015583294377,-0.420,0.5771811568323542,0.020431705270,-2.208553989612, 2.218266398921],a=1,v=1.05,t=0,r=0)
movej([-0.1501868299202268,-0.420,0.5784807753012208,0.020431705270,-2.208553989612, 2.218266398921],a=1,v=1.05,t=0,r=0)
movej([-0.14701350400750984,-0.420,0.5793838464461254,0.020431705270,-2.208553989612, 2.218266398921],a=1,v=1.05,t=0,r=0)
movej([-0.14384017809479288,-0.420,0.5798867339183008,0.020431705270,-2.208553989612, 2.218266398921],a=1,v=1.05,t=0,r=0)
movej([-0.14066685218207592,-0.420,0.5799874127673875,0.020431705270,-2.208553989612, 2.218266398921],a=1,v=1.05,t=0,r=0)
movej([-0.13749352626935896,-0.420,0.5796854775951942,0.020431705270,-2.208553989612, 2.218266398921],a=1,v=1.05,t=0,r=0)
movej([-0.134320200356642,-0.420,0.5789821441880932,0.020431705270,-2.208553989612, 2.218266398921],a=1,v=1.05,t=0,r=0)
movej([-0.13114687444392503,-0.420,0.5778802446214779,0.020431705270,-2.208553989612, 2.218266398921],a=1,v=1.05,t=0,r=0)
movej([-0.12797354853120807,-0.420,0.5763842158559942,0.020431705270,-2.208553989612, 2.218266398921],a=1,v=1.05,t=0,r=0)
movej([-0.12480022261849111,-0.420,0.5745000818714668,0.020431705270,-2.208553989612, 2.218266398921],a=1,v=1.05,t=0,r=0)
movej([-0.12162689670577415,-0.420,0.5722354294104581,0.020431705270,-2.208553989612, 2.218266398921],a=1,v=1.05,t=0,r=0)
movej([-0.11845357079305718,-0.420,0.5695993774291336,0.020431705270,-2.208553989612, 2.218266398921],a=1,v=1.05,t=0,r=0)
movej([-0.11528024488034022,-0.420,0.5666025403784438,0.020431705270,-2.208553989612, 2.218266398921],a=1,v=1.05,t=0,r=0)
movej([-0.11210691896762326,-0.420,0.5632569854634771,0.020431705270,-2.208553989612, 2.218266398921],a=1,v=1.05,t=0,r=0)
movej([-0.1089335930549063,-0.420,0.5595761840530832,0.020431705270,-2.208553989612, 2.218266398921],a=1,v=1.05,t=0,r=0)
movej([-0.10576026714218933,-0.420,0.5555749574354258,0.020431705270,-2.208553989612, 2.218266398921],a=1,v=1.05,t=0,r=0)
movej([-0.10258694122947237,-0.420,0.5512694171378862,0.020431705270,-2.208553989612, 2.218266398921],a=1,v=1.05,t=0,r=0)
movej([-0.09941361531675541,-0.420,0.5466769000516292,0.020431705270,-2.208553989612, 2.218266398921],a=1,v=1.05,t=0,r=0)
movej([-0.09624028940403845,-0.420,0.5418158986220605,0.020431705270,-2.208553989612, 2.218266398921],a=1,v=1.05,t=0,r=0)
movej([-0.09306696349132149,-0.420,0.5367059863862771,0.020431705270,-2.208553989612, 2.218266398921],a=1,v=1.05,t=0,r=0)
movej([-0.08989363757860452,-0.420,0.5313677391573406,0.020431705270,-2.208553989612, 2.218266398921],a=1,v=1.05,t=0,r=0)
movej([-0.08672031166588756,-0.420,0.525822652172741,0.020431705270,-2.208553989612, 2.218266398921],a=1,v=1.05,t=0,r=0)
movej([-0.0835469857531706,-0.420,0.5200930535406614,0.020431705270,-2.208553989612, 2.218266398921],a=1,v=1.05,t=0,r=0)
movej([-0.08037365984045364,-0.420,0.5142020143325668,0.020431705270,-2.208553989612, 2.218266398921],a=1,v=1.05,t=0,r=0)
movej([-0.07720033392773668,-0.420,0.508173255684143,0.020431705270,-2.208553989612, 2.218266398921],a=1,v=1.05,t=0,r=0)
movej([-0.07402700801501971,-0.420,0.502031053278654,0.020431705270,-2.208553989612, 2.218266398921],a=1,v=1.05,t=0,r=0)
movej([-0.07085368210230275,-0.420,0.495800139597335,0.020431705270,-2.208553989612, 2.218266398921],a=1,v=1.05,t=0,r=0)
movej([-0.06768035618958576,-0.420,0.48950560433041823,0.020431705270,-2.208553989612, 2.218266398921],a=1,v=1.05,t=0,r=0)
movej([-0.06450703027686883,-0.420,0.48317279334980673,0.020431705270,-2.208553989612, 2.218266398921],a=1,v=1.05,t=0,r=0)
movej([-0.061333704364151836,-0.420,0.4768272066501932,0.020431705270,-2.208553989612, 2.218266398921],a=1,v=1.05,t=0,r=0)
movej([-0.0581603784514349,-0.420,0.47049439566958173,0.020431705270,-2.208553989612, 2.218266398921],a=1,v=1.05,t=0,r=0)
movej([-0.05498705253871791,-0.420,0.464199860402665,0.020431705270,-2.208553989612, 2.218266398921],a=1,v=1.05,t=0,r=0)
movej([-0.05181372662600098,-0.420,0.4579689467213459,0.020431705270,-2.208553989612, 2.218266398921],a=1,v=1.05,t=0,r=0)
movej([-0.04864040071328399,-0.420,0.451826744315857,0.020431705270,-2.208553989612, 2.218266398921],a=1,v=1.05,t=0,r=0)
movej([-0.04546707480056705,-0.420,0.4457979856674331,0.020431705270,-2.208553989612, 2.218266398921],a=1,v=1.05,t=0,r=0)
movej([-0.04229374888785006,-0.420,0.4399069464593386,0.020431705270,-2.208553989612, 2.218266398921],a=1,v=1.05,t=0,r=0)
movej([-0.03912042297513313,-0.420,0.434177347827259,0.020431705270,-2.208553989612, 2.218266398921],a=1,v=1.05,t=0,r=0)
movej([-0.03594709706241614,-0.420,0.4286322608426593,0.020431705270,-2.208553989612, 2.218266398921],a=1,v=1.05,t=0,r=0)
movej([-0.032773771149699205,-0.420,0.42329401361372293,0.020431705270,-2.208553989612, 2.218266398921],a=1,v=1.05,t=0,r=0)
movej([-0.029600445236982215,-0.420,0.41818410137793943,0.020431705270,-2.208553989612, 2.218266398921],a=1,v=1.05,t=0,r=0)
movej([-0.02642711932426528,-0.420,0.4133230999483708,0.020431705270,-2.208553989612, 2.218266398921],a=1,v=1.05,t=0,r=0)
movej([-0.02325379341154829,-0.420,0.4087305828621137,0.020431705270,-2.208553989612, 2.218266398921],a=1,v=1.05,t=0,r=0)
movej([-0.020080467498831356,-0.420,0.4044250425645742,0.020431705270,-2.208553989612, 2.218266398921],a=1,v=1.05,t=0,r=0)
movej([-0.016907141586114366,-0.420,0.4004238159469168,0.020431705270,-2.208553989612, 2.218266398921],a=1,v=1.05,t=0,r=0)
movej([-0.013733815673397431,-0.420,0.39674301453652283,0.020431705270,-2.208553989612, 2.218266398921],a=1,v=1.05,t=0,r=0)
movej([-0.010560489760680442,-0.420,0.3933974596215561,0.020431705270,-2.208553989612, 2.218266398921],a=1,v=1.05,t=0,r=0)
movej([-0.007387163847963479,-0.420,0.3904006225708664,0.020431705270,-2.208553989612, 2.218266398921],a=1,v=1.05,t=0,r=0)
movej([-0.004213837935246517,-0.420,0.38776457058954183,0.020431705270,-2.208553989612, 2.218266398921],a=1,v=1.05,t=0,r=0)
movej([-0.0010405120225295827,-0.420,0.3854999181285331,0.020431705270,-2.208553989612, 2.218266398921],a=1,v=1.05,t=0,r=0)
movej([0.002132813890187407,-0.420,0.38361578414400577,0.020431705270,-2.208553989612, 2.218266398921],a=1,v=1.05,t=0,r=0)
movej([0.005306139802904369,-0.420,0.3821197553785221,0.020431705270,-2.208553989612, 2.218266398921],a=1,v=1.05,t=0,r=0)
movej([0.008479465715621332,-0.420,0.3810178558119067,0.020431705270,-2.208553989612, 2.218266398921],a=1,v=1.05,t=0,r=0)
movej([0.011652791628338266,-0.420,0.3803145224048058,0.020431705270,-2.208553989612, 2.218266398921],a=1,v=1.05,t=0,r=0)
movej([0.014826117541055256,-0.420,0.38001258723261244,0.020431705270,-2.208553989612, 2.218266398921],a=1,v=1.05,t=0,r=0)
movej([0.017999443453772218,-0.420,0.38011326608169915,0.020431705270,-2.208553989612, 2.218266398921],a=1,v=1.05,t=0,r=0)
movej([0.02117276936648918,-0.420,0.38061615355387457,0.020431705270,-2.208553989612, 2.218266398921],a=1,v=1.05,t=0,r=0)
movej([0.024346095279206115,-0.420,0.3815192246987792,0.020431705270,-2.208553989612, 2.218266398921],a=1,v=1.05,t=0,r=0)
movej([0.027519421191923105,-0.420,0.3828188431676458,0.020431705270,-2.208553989612, 2.218266398921],a=1,v=1.05,t=0,r=0)
movej([0.030692747104640067,-0.420,0.3845097758555926,0.020431705270,-2.208553989612, 2.218266398921],a=1,v=1.05,t=0,r=0)
movej([0.03386607301735703,-0.420,0.38658521397348933,0.020431705270,-2.208553989612, 2.218266398921],a=1,v=1.05,t=0,r=0)
movej([0.03703939893007399,-0.420,0.38903680046454814,0.020431705270,-2.208553989612, 2.218266398921],a=1,v=1.05,t=0,r=0)
movej([0.04021272484279095,-0.420,0.3918546636552418,0.020431705270,-2.208553989612, 2.218266398921],a=1,v=1.05,t=0,r=0)
movej([0.043386050755507916,-0.420,0.39502745700504854,0.020431705270,-2.208553989612, 2.218266398921],a=1,v=1.05,t=0,r=0)
movej([0.04655937666822488,-0.420,0.3985424047949664,0.020431705270,-2.208553989612, 2.218266398921],a=1,v=1.05,t=0,r=0)
movej([0.04973270258094184,-0.420,0.40238535357082433,0.020431705270,-2.208553989612, 2.218266398921],a=1,v=1.05,t=0,r=0)
movej([0.0529060284936588,-0.420,0.40654082913424666,0.020431705270,-2.208553989612, 2.218266398921],a=1,v=1.05,t=0,r=0)
movej([0.056079354406375764,-0.420,0.4109920988517888,0.020431705270,-2.208553989612, 2.218266398921],a=1,v=1.05,t=0,r=0)
movej([0.059252680319092726,-0.420,0.41572123903134606,0.020431705270,-2.208553989612, 2.218266398921],a=1,v=1.05,t=0,r=0)
movej([0.06242600623180969,-0.420,0.42070920709453596,0.020431705270,-2.208553989612, 2.218266398921],a=1,v=1.05,t=0,r=0)
movej([0.06559933214452665,-0.420,0.4259359182544402,0.020431705270,-2.208553989612, 2.218266398921],a=1,v=1.05,t=0,r=0)
movej([0.06877265805724361,-0.420,0.4313803263899531,0.020431705270,-2.208553989612, 2.218266398921],a=1,v=1.05,t=0,r=0)
movej([0.07194598396996058,-0.420,0.4370205087910828,0.020431705270,-2.208553989612, 2.218266398921],a=1,v=1.05,t=0,r=0)
movej([0.07511930988267754,-0.420,0.4428337544339673,0.020431705270,-2.208553989612, 2.218266398921],a=1,v=1.05,t=0,r=0)
movej([0.0782926357953945,-0.420,0.4487966554301513,0.020431705270,-2.208553989612, 2.218266398921],a=1,v=1.05,t=0,r=0)
movej([0.08146596170811146,-0.420,0.454885201281892,0.020431705270,-2.208553989612, 2.218266398921],a=1,v=1.05,t=0,r=0)
movej([0.08463928762082848,-0.420,0.461074875563959,0.020431705270,-2.208553989612, 2.218266398921],a=1,v=1.05,t=0,r=0)
movej([0.08781261353354539,-0.420,0.4673407546426251,0.020431705270,-2.208553989612, 2.218266398921],a=1,v=1.05,t=0,r=0)
movej([0.09098593944626235,-0.420,0.47365760803434354,0.020431705270,-2.208553989612, 2.218266398921],a=1,v=1.05,t=0,r=0)
movej([0.09415926535897931,-0.420,0.48,0.020431705270,-2.208553989612, 2.218266398921],a=1,v=1.05,t=0,r=0)
