movej(p[-0.16,-0.55,0.5,0.047,-2.176,2.309],a=1.05,v=1.2,t=0,r=0)
movej(p[-0.15797979797979797,-0.55,0.5081097600130243,0.047,-2.176,2.309],a=1.05,v=1.2,t=0,r=0)
movej(p[-0.15595959595959596,-0.55,0.5161359666329399,0.047,-2.176,2.309],a=1.05,v=1.2,t=0,r=0)
movej(p[-0.15393939393939393,-0.55,0.5239959273021608,0.047,-2.176,2.309],a=1.05,v=1.2,t=0,r=0)
movej(p[-0.15191919191919193,-0.55,0.5316086622651137,0.047,-2.176,2.309],a=1.05,v=1.2,t=0,r=0)
movej(p[-0.1498989898989899,-0.55,0.5388957388880375,0.047,-2.176,2.309],a=1.05,v=1.2,t=0,r=0)
movej(p[-0.1478787878787879,-0.55,0.5457820797362471,0.047,-2.176,2.309],a=1.05,v=1.2,t=0,r=0)
movej(p[-0.14585858585858585,-0.55,0.5521967360833875,0.047,-2.176,2.309],a=1.05,v=1.2,t=0,r=0)
movej(p[-0.14383838383838385,-0.55,0.55807361888335,0.047,-2.176,2.309],a=1.05,v=1.2,t=0,r=0)
movej(p[-0.14181818181818182,-0.55,0.563352179673782,0.047,-2.176,2.309],a=1.05,v=1.2,t=0,r=0)
movej(p[-0.1397979797979798,-0.55,0.5679780343959612,0.047,-2.176,2.309],a=1.05,v=1.2,t=0,r=0)
movej(p[-0.13777777777777778,-0.55,0.5719035237039334,0.047,-2.176,2.309],a=1.05,v=1.2,t=0,r=0)
movej(p[-0.13575757575757577,-0.55,0.5750882039901485,0.047,-2.176,2.309],a=1.05,v=1.2,t=0,r=0)
movej(p[-0.13373737373737374,-0.55,0.5774992640686463,0.047,-2.176,2.309],a=1.05,v=1.2,t=0,r=0)
movej(p[-0.13171717171717173,-0.55,0.5791118632227813,0.047,-2.176,2.309],a=1.05,v=1.2,t=0,r=0)
movej(p[-0.1296969696969697,-0.55,0.5799093871346407,0.047,-2.176,2.309],a=1.05,v=1.2,t=0,r=0)
movej(p[-0.12767676767676767,-0.55,0.5798836190593621,0.047,-2.176,2.309],a=1.05,v=1.2,t=0,r=0)
movej(p[-0.12565656565656566,-0.55,0.5790348244807728,0.047,-2.176,2.309],a=1.05,v=1.2,t=0,r=0)
movej(p[-0.12363636363636364,-0.55,0.5773717483761566,0.047,-2.176,2.309],a=1.05,v=1.2,t=0,r=0)
movej(p[-0.12161616161616162,-0.55,0.5749115251183329,0.047,-2.176,2.309],a=1.05,v=1.2,t=0,r=0)
movej(p[-0.1195959595959596,-0.55,0.5716795019433069,0.047,-2.176,2.309],a=1.05,v=1.2,t=0,r=0)
movej(p[-0.11757575757575758,-0.55,0.5677089778022739,0.047,-2.176,2.309],a=1.05,v=1.2,t=0,r=0)
movej(p[-0.11555555555555555,-0.55,0.5630408602885377,0.047,-2.176,2.309],a=1.05,v=1.2,t=0,r=0)
movej(p[-0.11353535353535354,-0.55,0.5577232441739628,0.047,-2.176,2.309],a=1.05,v=1.2,t=0,r=0)
movej(p[-0.11151515151515151,-0.55,0.5518109158972242,0.047,-2.176,2.309],a=1.05,v=1.2,t=0,r=0)
movej(p[-0.1094949494949495,-0.55,0.5453647891090216,0.047,-2.176,2.309],a=1.05,v=1.2,t=0,r=0)
movej(p[-0.10747474747474747,-0.55,0.5384512770897358,0.047,-2.176,2.309],a=1.05,v=1.2,t=0,r=0)
movej(p[-0.10545454545454547,-0.55,0.5311416085053914,0.047,-2.176,2.309],a=1.05,v=1.2,t=0,r=0)
movej(p[-0.10343434343434343,-0.55,0.5235110935515724,0.047,-2.176,2.309],a=1.05,v=1.2,t=0,r=0)
movej(p[-0.10141414141414141,-0.55,0.5156383480460759,0.047,-2.176,2.309],a=1.05,v=1.2,t=0,r=0)
movej(p[-0.0993939393939394,-0.55,0.5076044834643346,0.047,-2.176,2.309],a=1.05,v=1.2,t=0,r=0)
movej(p[-0.09737373737373738,-0.55,0.4994922712625327,0.047,-2.176,2.309],a=1.05,v=1.2,t=0,r=0)
movej(p[-0.09535353535353536,-0.55,0.4913852900982369,0.047,-2.176,2.309],a=1.05,v=1.2,t=0,r=0)
movej(p[-0.09333333333333334,-0.55,0.4833670647345793,0.047,-2.176,2.309],a=1.05,v=1.2,t=0,r=0)
movej(p[-0.09131313131313132,-0.55,0.47552020549970364,0.047,-2.176,2.309],a=1.05,v=1.2,t=0,r=0)
movej(p[-0.0892929292929293,-0.55,0.4679255571674709,0.047,-2.176,2.309],a=1.05,v=1.2,t=0,r=0)
movej(p[-0.08727272727272728,-0.55,0.4606613660283517,0.047,-2.176,2.309],a=1.05,v=1.2,t=0,r=0)
movej(p[-0.08525252525252526,-0.55,0.4538024737320235,0.047,-2.176,2.309],a=1.05,v=1.2,t=0,r=0)
movej(p[-0.08323232323232324,-0.55,0.44741954620736757,0.047,-2.176,2.309],a=1.05,v=1.2,t=0,r=0)
movej(p[-0.08121212121212122,-0.55,0.4415783456041634,0.047,-2.176,2.309],a=1.05,v=1.2,t=0,r=0)
movej(p[-0.0791919191919192,-0.55,0.4363390527575335,0.047,-2.176,2.309],a=1.05,v=1.2,t=0,r=0)
movej(p[-0.07717171717171717,-0.55,0.43175564715566506,0.047,-2.176,2.309],a=1.05,v=1.2,t=0,r=0)
movej(p[-0.07515151515151515,-0.55,0.4278753507988905,0.047,-2.176,2.309],a=1.05,v=1.2,t=0,r=0)
movej(p[-0.07313131313131313,-0.55,0.42473814167994384,0.047,-2.176,2.309],a=1.05,v=1.2,t=0,r=0)
movej(p[-0.07111111111111111,-0.55,0.4223763418979203,0.047,-2.176,2.309],a=1.05,v=1.2,t=0,r=0)
movej(p[-0.06909090909090909,-0.55,0.4208142846495254,0.047,-2.176,2.309],a=1.05,v=1.2,t=0,r=0)
movej(p[-0.06707070707070707,-0.55,0.42006806352854287,0.047,-2.176,2.309],a=1.05,v=1.2,t=0,r=0)
movej(p[-0.06505050505050505,-0.55,0.42014536671644387,0.047,-2.176,2.309],a=1.05,v=1.2,t=0,r=0)
movej(p[-0.06303030303030303,-0.55,0.42104539777244143,0.047,-2.176,2.309],a=1.05,v=1.2,t=0,r=0)
movej(p[-0.061010101010101014,-0.55,0.4227588838390759,0.047,-2.176,2.309],a=1.05,v=1.2,t=0,r=0)
movej(p[-0.058989898989898995,-0.55,0.42526817117879145,0.047,-2.176,2.309],a=1.05,v=1.2,t=0,r=0)
movej(p[-0.056969696969696976,-0.55,0.42854740705720606,0.047,-2.176,2.309],a=1.05,v=1.2,t=0,r=0)
movej(p[-0.054949494949494956,-0.55,0.43256280609916625,0.047,-2.176,2.309],a=1.05,v=1.2,t=0,r=0)
movej(p[-0.05292929292929294,-0.55,0.43727299837336675,0.047,-2.176,2.309],a=1.05,v=1.2,t=0,r=0)
movej(p[-0.05090909090909092,-0.55,0.4426294556192829,0.047,-2.176,2.309],a=1.05,v=1.2,t=0,r=0)
movej(p[-0.0488888888888889,-0.55,0.4485769912250768,0.047,-2.176,2.309],a=1.05,v=1.2,t=0,r=0)
movej(p[-0.046868686868686865,-0.55,0.4550543288052944,0.047,-2.176,2.309],a=1.05,v=1.2,t=0,r=0)
movej(p[-0.044848484848484846,-0.55,0.4619947335204004,0.047,-2.176,2.309],a=1.05,v=1.2,t=0,r=0)
movej(p[-0.042828282828282827,-0.55,0.4693266996337808,0.047,-2.176,2.309],a=1.05,v=1.2,t=0,r=0)
movej(p[-0.04080808080808081,-0.55,0.4769746872224359,0.047,-2.176,2.309],a=1.05,v=1.2,t=0,r=0)
movej(p[-0.03878787878787879,-0.55,0.48485990045116717,0.047,-2.176,2.309],a=1.05,v=1.2,t=0,r=0)
movej(p[-0.03676767676767677,-0.55,0.4929010993918401,0.047,-2.176,2.309],a=1.05,v=1.2,t=0,r=0)
movej(p[-0.03474747474747475,-0.55,0.5010154370236951,0.047,-2.176,2.309],a=1.05,v=1.2,t=0,r=0)
movej(p[-0.032727272727272744,-0.55,0.5091193127912432,0.047,-2.176,2.309],a=1.05,v=1.2,t=0,r=0)
movej(p[-0.03070707070707071,-0.55,0.5171292339256944,0.047,-2.176,2.309],a=1.05,v=1.2,t=0,r=0)
movej(p[-0.028686868686868677,-0.55,0.524962675655879,0.047,-2.176,2.309],a=1.05,v=1.2,t=0,r=0)
movej(p[-0.026666666666666672,-0.55,0.532538931446064,0.047,-2.176,2.309],a=1.05,v=1.2,t=0,r=0)
movej(p[-0.02464646464646464,-0.55,0.5397799445008188,0.047,-2.176,2.309],a=1.05,v=1.2,t=0,r=0)
movej(p[-0.022626262626262633,-0.55,0.5466111119700839,0.047,-2.176,2.309],a=1.05,v=1.2,t=0,r=0)
movej(p[-0.0206060606060606,-0.55,0.5529620535688655,0.047,-2.176,2.309],a=1.05,v=1.2,t=0,r=0)
movej(p[-0.018585858585858595,-0.55,0.5587673366926026,0.047,-2.176,2.309],a=1.05,v=1.2,t=0,r=0)
movej(p[-0.01656565656565656,-0.55,0.5639671505574788,0.047,-2.176,2.309],a=1.05,v=1.2,t=0,r=0)
movej(p[-0.014545454545454556,-0.55,0.568507922420127,0.047,-2.176,2.309],a=1.05,v=1.2,t=0,r=0)
movej(p[-0.012525252525252523,-0.55,0.5723428695279326,0.047,-2.176,2.309],a=1.05,v=1.2,t=0,r=0)
movej(p[-0.010505050505050517,-0.55,0.5754324811132849,0.047,-2.176,2.309],a=1.05,v=1.2,t=0,r=0)
movej(p[-0.008484848484848484,-0.55,0.5777449254658833,0.047,-2.176,2.309],a=1.05,v=1.2,t=0,r=0)
movej(p[-0.0064646464646464785,-0.55,0.5792563778891,0.047,-2.176,2.309],a=1.05,v=1.2,t=0,r=0)
movej(p[-0.004444444444444445,-0.55,0.5799512661615277,0.047,-2.176,2.309],a=1.05,v=1.2,t=0,r=0)
movej(p[-0.00242424242424244,-0.55,0.5798224309747653,0.047,-2.176,2.309],a=1.05,v=1.2,t=0,r=0)
movej(p[-0.00040404040404040664,-0.55,0.5788711996944792,0.047,-2.176,2.309],a=1.05,v=1.2,t=0,r=0)
movej(p[0.0016161616161615988,-0.55,0.5771073726847954,0.047,-2.176,2.309],a=1.05,v=1.2,t=0,r=0)
movej(p[0.003636363636363632,-0.55,0.5745491223369161,0.047,-2.176,2.309],a=1.05,v=1.2,t=0,r=0)
movej(p[0.005656565656565665,-0.55,0.5712228058422559,0.047,-2.176,2.309],a=1.05,v=1.2,t=0,r=0)
movej(p[0.007676767676767671,-0.55,0.5671626936390564,0.047,-2.176,2.309],a=1.05,v=1.2,t=0,r=0)
movej(p[0.009696969696969704,-0.55,0.5624106163302497,0.047,-2.176,2.309],a=1.05,v=1.2,t=0,r=0)
movej(p[0.01171717171717171,-0.55,0.557015533710309,0.047,-2.176,2.309],a=1.05,v=1.2,t=0,r=0)
movej(p[0.013737373737373743,-0.55,0.5510330303413268,0.047,-2.176,2.309],a=1.05,v=1.2,t=0,r=0)
movej(p[0.015757575757575748,-0.55,0.5445247428753075,0.047,-2.176,2.309],a=1.05,v=1.2,t=0,r=0)
movej(p[0.01777777777777778,-0.55,0.5375577250228712,0.047,-2.176,2.309],a=1.05,v=1.2,t=0,r=0)
movej(p[0.019797979797979787,-0.55,0.5302037567109807,0.047,-2.176,2.309],a=1.05,v=1.2,t=0,r=0)
movej(p[0.02181818181818182,-0.55,0.5225386045473144,0.047,-2.176,2.309],a=1.05,v=1.2,t=0,r=0)
movej(p[0.023838383838383825,-0.55,0.5146412412105876,0.047,-2.176,2.309],a=1.05,v=1.2,t=0,r=0)
movej(p[0.02585858585858586,-0.55,0.5065930318093037,0.047,-2.176,2.309],a=1.05,v=1.2,t=0,r=0)
movej(p[0.027878787878787864,-0.55,0.4984768955917323,0.047,-2.176,2.309],a=1.05,v=1.2,t=0,r=0)
movej(p[0.029898989898989897,-0.55,0.4903764516438662,0.047,-2.176,2.309],a=1.05,v=1.2,t=0,r=0)
movej(p[0.0319191919191919,-0.55,0.48237515737707676,0.047,-2.176,2.309],a=1.05,v=1.2,t=0,r=0)
movej(p[0.033939393939393936,-0.55,0.47455544868147403,0.047,-2.176,2.309],a=1.05,v=1.2,t=0,r=0)
movej(p[0.03595959595959597,-0.55,0.46699789060381514,0.047,-2.176,2.309],a=1.05,v=1.2,t=0,r=0)
movej(p[0.037979797979797975,-0.55,0.45978034730037476,0.047,-2.176,2.309],a=1.05,v=1.2,t=0,r=0)
movej(p[0.04000000000000001,-0.55,0.4529771798166022,0.047,-2.176,2.309],a=1.05,v=1.2,t=0,r=0)
